flags/4x3/fo.svg

<svg xmlns="http://www.w3.org/2000/svg" id="flag-icon-css-fo" width="640" height="480">
  <defs>
    <clipPath id="a">
      <path fill-opacity=".67" d="M-78.015 32h640v480h-640z"/>
    </clipPath>
  </defs>
  <g fill-rule="evenodd" stroke-width="0" clip-path="url(#a)" transform="translate(78.02 -32)">
    <path fill="#fff" d="M-78.015 32h663.91v480h-663.91z"/>
    <path fill="#003897" d="M-76.033 218.67h185.9V32h106.23v186.67h371.79v106.67h-371.79v186.67h-106.23V325.34h-185.9V218.67z"/>
    <path fill="#d72828" d="M-76.033 245.33h212.45V32h53.113v213.33h398.35v53.333H189.53v213.33h-53.113v-213.33h-212.45V245.33z"/>
  </g>
</svg>

<svg xmlns="http://www.w3.org/2000/svg" id="flag-icon-css-fo" width="640" height="480">
  <defs>
    <clipPath id="a">
      <path fill-opacity=".67" d="M-78.02 32h640v480h-640z"/>
    </clipPath>
  </defs>
  <g fill-rule="evenodd" stroke-width="0" clip-path="url(#a)" transform="translate(78.02 -32)">
    <path fill="#fff" d="M-78.02 32H585.9v480H-78z"/>
    <path fill="#003897" d="M-76.03 218.67h185.9V32H216.1v186.67h371.79v106.67h-371.8v186.67H109.88V325.34h-185.9V218.67z"/>
    <path fill="#d72828" d="M-76.03 245.33h212.45V32h53.11v213.33h398.35v53.33H189.53V512h-53.11V298.66H-76.03v-53.33z"/>
  </g>
</svg>
